X:1
T:Beautiful Star of Bethlehem
C:A L Phipps
M:3/4
L:1/4
Q:1/4=120
K:D
P:Verses
|A,|:D E F|"D"A2 B|A2 F|D3
w:1Oh, Beau-ti-ful Star of Beth-le-hem,
w:_guid-ing the wise men on their way,
w:2|Beau-ti-ful Star the Hope of Life,
w:_in-to the light of per-fect day,
w:3|Beau-ti-ful Star the Hope of Rest,
w:_Je-sus is now that star di-vine,
|F E D|"G"B,2 D|D2 B,|"D"A,2- A,
w:Shin-ing a-far thru sha-dows dim,
w:Un-to the place where Je-sus lay;
w:Guid-ing the pil-grim through the night;
w:It will give out a love-ly ray,
w:For the re-deemed, the good~and the blessed,
w:bright-er and bright-er he will shine.
|D E F|A2 B|A2 F|"E"D3
w:Giv-ing a light for those who long
w:Beau-ti-ful Star of Beth-le-hem
w:O-ver the mount-ain till the break
w:Beau-ti-ful Star of Beth-le-hem
w:Yon-der in glo-ry when the crown
w:Beau-ti-ful Star of Beth-le-hem
|1F3|"A"E3-|E3-|E2 A,:|2"A"E F E|"D"D3-|"G"D3-|"D"D2 A||
w:have gone__ and
w:|||||Shine__ on.__ Oh,
w:of dawn__ and
w:|||||Shine__ on.__ Oh,
w:is worn__ for
w:|||||Shine__ on.__ Oh,
P:Refrain
|D E F|"D"A3-|A3-|A2 B
w:Beau-ti-ful Star__ of
|A2 F|D3-|D3-|D3|D E F
w:Beth-le-hem,__ Shine up-on
|A2 B|A2 F|D3
w:us un-til the glo-
|F3|"A"E3-|E3-|E2 A,|D E F
w:ry dawn.__ Oh, Give us thy
|"D"A2 B|A2 F|D3|F E D
w:light to light the way, In-to the
|"G"B,2 D|D2 B,|"D"A,3|D E F
w:land of per-fect day. Beau-ti-ful
|A2 B|A2 F|"E"D3|"A"E F E
w:Star of Beth-le-hem, Shine__
|"D"D3-|"G"D3-|"D"D2 z||
w:on.__
